public/library/coinspaid-text-light.svg

<svg width="298" height="80" viewBox="0 0 298 80" fill="none" xmlns="http://www.w3.org/2000/svg">
<ellipse cx="40" cy="40" rx="40" ry="40" fill="#EFFF04"/>
<path d="M30.5818 29.723C30.5818 34.935 34.827 39.1757 40.0481 39.1757C41.38 39.1757 42.4564 39.0611 44.0006 38.7516V48.5883C35.1944 50.021 23.9915 45.3219 21.4225 33.8863L21.3565 33.5826L21.2589 33.8777C20.6131 35.8519 20.2858 37.9121 20.2858 40.0038C20.2858 50.8835 29.1523 59.7345 40.0481 59.7345C41.469 59.7345 42.841 59.6485 44.0006 59.5625V69.0067C42.2956 69.3333 40.0481 69.3333 40.0481 69.3333C22.8691 69.3333 14.947 55.8835 12.9808 51.2731C11.4452 47.6714 10.6673 43.8806 10.6673 40.0038C10.6673 24.3161 23.1418 11.2215 39.0665 10.6943C39.4195 10.6829 41.8766 10.5482 44.0006 10.998V20.6886C42.7233 20.339 41.5809 20.2703 40.0481 20.2703C34.827 20.2703 30.5818 24.5109 30.5818 29.723Z" fill="black"/>
<path d="M213.459 34.1045C216.707 31.7179 221.995 31.1785 225.704 32.8271C227.011 33.3787 228.158 34.1766 229.145 35.2217C230.161 36.2668 230.945 37.5153 231.496 38.9668C232.077 40.4183 232.368 42.03 232.368 43.8008C232.367 45.5422 232.077 47.1386 231.496 48.5898C230.945 50.0413 230.161 51.3048 229.145 52.3789C228.158 53.4239 227.011 54.2368 225.704 54.8174C224.398 55.3979 223.004 55.6885 221.524 55.6885C220.479 55.6884 219.492 55.5143 218.563 55.166C217.663 54.8467 216.85 54.382 216.124 53.7725V62.0459H208.94V43.8008C208.834 39.878 210.609 36.1992 213.459 34.1045ZM134.612 31.8682C136.324 31.8682 137.892 32.1736 139.315 32.7832C140.766 33.3638 142.03 34.1905 143.104 35.2646C144.178 36.3388 145.005 37.6022 145.585 39.0537C146.195 40.5052 146.5 42.0871 146.5 43.7998C146.5 45.5125 146.195 47.0944 145.585 48.5459C145.005 49.9973 144.178 51.2749 143.104 52.3779C142.03 53.452 140.766 54.2947 139.315 54.9043C137.892 55.4848 136.324 55.7744 134.612 55.7744C132.928 55.7744 131.36 55.4849 129.909 54.9043C128.457 54.2947 127.195 53.452 126.12 52.3779C125.046 51.2748 124.205 49.9973 123.595 48.5459C123.015 47.0945 122.724 45.5125 122.724 43.7998C122.724 42.0871 123.014 40.5052 123.595 39.0537C124.205 37.6022 125.046 36.3388 126.12 35.2646C127.194 34.1907 128.457 33.3638 129.909 32.7832C131.36 32.1736 132.928 31.8682 134.612 31.8682ZM198.157 31.8682C200.131 31.8682 202.148 32.2025 204.209 32.8701V39.6631C202.584 38.8793 201.06 38.357 199.637 38.0957C198.215 37.8344 197.068 37.8056 196.197 38.0088C195.326 38.183 194.891 38.5743 194.891 39.1836C194.891 39.59 195.138 39.9094 195.631 40.1416C196.154 40.3448 196.807 40.5339 197.59 40.708C198.403 40.8822 199.26 41.115 200.16 41.4053C201.088 41.6956 201.945 42.1015 202.729 42.624C203.542 43.1175 204.195 43.814 204.689 44.7139C205.211 45.5847 205.472 46.7171 205.472 48.1104C205.472 49.9102 204.965 51.3915 203.949 52.5527C202.962 53.6849 201.626 54.5116 199.942 55.0342C198.258 55.5567 196.371 55.7746 194.281 55.6875C192.22 55.6294 190.115 55.296 187.967 54.6865V47.8936C189.186 48.445 190.405 48.8799 191.624 49.1992C192.844 49.4895 193.947 49.6636 194.934 49.7217C195.921 49.7797 196.72 49.7071 197.329 49.5039C197.939 49.2717 198.243 48.8945 198.243 48.3721C198.243 47.9657 197.982 47.6463 197.459 47.4141C196.966 47.1819 196.313 46.9788 195.5 46.8047C194.687 46.6015 193.816 46.3687 192.887 46.1074C191.987 45.8171 191.13 45.4251 190.318 44.9316C189.505 44.4092 188.837 43.7274 188.315 42.8857C187.821 42.0148 187.575 40.8966 187.575 39.5322C187.575 37.9066 188.039 36.5276 188.968 35.3955C189.926 34.2344 191.204 33.3638 192.8 32.7832C194.397 32.1736 196.182 31.8682 198.157 31.8682ZM241.4 32.8271C245.109 31.1786 250.398 31.718 253.645 34.1045C256.495 36.1992 258.271 39.878 258.164 43.8008V55.0791H250.98C250.98 55.3997 250.98 54.0511 250.98 53.7725C250.254 54.382 249.441 54.8467 248.541 55.166C247.612 55.5144 246.625 55.6885 245.579 55.6885C244.099 55.6884 242.706 55.3978 241.4 54.8174C240.093 54.2368 238.946 53.4239 237.959 52.3789C236.943 51.3048 236.159 50.0413 235.608 48.5898C235.027 47.1386 234.737 45.5423 234.737 43.8008C234.737 42.03 235.027 40.4183 235.608 38.9668C236.159 37.5153 236.943 36.2668 237.959 35.2217C238.946 34.1767 240.093 33.3787 241.4 32.8271ZM297.664 23.291C297.664 28.1312 297.587 43.6636 297.587 43.7139C297.693 47.6366 295.917 51.3145 293.067 53.4092C289.819 55.7957 284.531 56.3361 280.822 54.6875C279.515 54.1359 278.368 53.3371 277.381 52.292C276.365 51.247 275.581 49.9991 275.03 48.5479C274.449 47.0963 274.16 45.4847 274.16 43.7139C274.16 41.9721 274.449 40.3753 275.03 38.9238C275.581 37.4724 276.365 36.2098 277.381 35.1357C278.368 34.0907 279.515 33.2779 280.822 32.6973C282.128 32.1167 283.522 31.8262 285.002 31.8262C286.047 31.8262 287.034 32.0003 287.963 32.3486C288.863 32.6679 289.753 33.2049 290.479 33.8145V23.291H297.664ZM112.891 32.1299C115.01 31.8977 117.274 32.1444 119.684 32.8701V39.5762C118 38.7633 116.389 38.3863 114.85 38.4443C113.312 38.5025 112.049 38.9811 111.062 39.8809C110.075 40.7517 109.581 42.0582 109.581 43.7998C109.581 45.5416 110.075 46.8628 111.062 47.7627C112.049 48.6335 113.311 49.0981 114.85 49.1562C116.389 49.1853 118 48.8082 119.684 48.0244V54.7295C117.274 55.4552 115.01 55.7029 112.891 55.4707C110.772 55.2675 108.913 54.6576 107.317 53.6416C105.72 52.6255 104.472 51.2895 103.572 49.6348C102.672 47.9511 102.222 46.0059 102.222 43.7998C102.222 41.5938 102.672 39.6634 103.572 38.0088C104.472 36.3251 105.72 34.975 107.317 33.959C108.913 32.9429 110.772 32.3331 112.891 32.1299ZM157.455 55.0781H150.27V32.5654H157.455V55.0781ZM175.436 31.9561C177.091 31.9561 178.542 32.3331 179.79 33.0879C181.068 33.8426 182.055 34.9312 182.751 36.3535C183.477 37.747 183.84 39.4312 183.84 41.4053V55.0781H176.655V42.3633C176.655 41.2021 176.379 40.2729 175.827 39.5762C175.305 38.8505 174.463 38.4873 173.302 38.4873C172.141 38.4873 171.241 38.8216 170.602 39.4893C169.963 40.1569 169.644 41.1151 169.644 42.3633V55.0781H162.459V32.5654H169.644V33.6973C170.428 33.1457 171.299 32.7249 172.257 32.4346C173.244 32.1153 174.304 31.9561 175.436 31.9561ZM270.364 55.0781H263.179V32.5654H270.364V55.0781ZM220.566 38.3135C219.172 38.3136 218.055 38.8219 217.213 39.8379C216.371 40.8249 215.951 42.1461 215.951 43.8008C215.951 45.4553 216.371 46.7907 217.213 47.8066C218.055 48.8225 219.173 49.33 220.566 49.3301C221.988 49.3301 223.106 48.8366 223.919 47.8496C224.761 46.8337 225.182 45.4842 225.182 43.8008C225.182 42.117 224.761 40.781 223.919 39.7939C223.106 38.807 221.988 38.3135 220.566 38.3135ZM246.537 38.3135C245.115 38.3136 243.998 38.8071 243.185 39.7939C242.343 40.781 241.922 42.117 241.922 43.8008C241.922 45.4842 242.343 46.8337 243.185 47.8496C243.998 48.8365 245.115 49.33 246.537 49.3301C247.931 49.3301 249.049 48.8226 249.891 47.8066C250.733 46.7907 251.154 45.4553 251.154 43.8008C251.154 42.1462 250.733 40.8249 249.891 39.8379C249.049 38.8218 247.931 38.3135 246.537 38.3135ZM134.612 38.3564C133.189 38.3565 132.043 38.865 131.172 39.8809C130.33 40.8679 129.909 42.1741 129.909 43.7998C129.909 45.3965 130.33 46.7176 131.172 47.7627C132.043 48.7785 133.189 49.2861 134.612 49.2861C136.034 49.2861 137.166 48.7785 138.008 47.7627C138.879 46.7176 139.315 45.3965 139.315 43.7998C139.315 42.1741 138.879 40.8679 138.008 39.8809C137.166 38.8649 136.034 38.3564 134.612 38.3564ZM285.96 38.1836C284.538 38.1836 283.42 38.6771 282.607 39.6641C281.765 40.6801 281.344 42.0302 281.344 43.7139C281.344 45.3976 281.765 46.7337 282.607 47.7207C283.42 48.7076 284.538 49.2012 285.96 49.2012C287.354 49.2011 288.471 48.6926 289.313 47.6768C290.155 46.6897 290.576 45.3686 290.576 43.7139C290.576 42.0592 290.155 40.724 289.313 39.708C288.471 38.6921 287.354 38.1837 285.96 38.1836ZM153.884 21.1562C154.697 21.1562 155.437 21.3593 156.105 21.7656C156.802 22.172 157.354 22.7093 157.76 23.377C158.166 24.0156 158.369 24.7419 158.369 25.5547C158.369 26.3674 158.166 27.1078 157.76 27.7754C157.354 28.443 156.802 28.9803 156.105 29.3867C155.437 29.793 154.697 29.9961 153.884 29.9961C153.042 29.9961 152.273 29.793 151.576 29.3867C150.909 28.9804 150.372 28.443 149.965 27.7754C149.559 27.1078 149.356 26.3674 149.356 25.5547C149.356 24.7418 149.559 24.0156 149.965 23.377C150.372 22.7093 150.909 22.172 151.576 21.7656C152.273 21.3593 153.042 21.1563 153.884 21.1562ZM266.793 21.1562C267.606 21.1563 268.346 21.3593 269.014 21.7656C269.711 22.172 270.262 22.7094 270.668 23.377C271.075 24.0156 271.279 24.7418 271.279 25.5547C271.279 26.3674 271.075 27.1078 270.668 27.7754C270.262 28.4429 269.711 28.9804 269.014 29.3867C268.346 29.793 267.606 29.9961 266.793 29.9961C265.951 29.9961 265.181 29.7931 264.485 29.3867C263.817 28.9804 263.281 28.4429 262.874 27.7754C262.468 27.1078 262.264 26.3674 262.264 25.5547C262.264 24.7418 262.468 24.0156 262.874 23.377C263.281 22.7094 263.817 22.172 264.485 21.7656C265.181 21.3592 265.951 21.1562 266.793 21.1562Z" fill="black"/>
</svg>

<svg xmlns="http://www.w3.org/2000/svg" width="298" height="80" fill="none" viewBox="0 0 298 80"><circle cx="40" cy="40" r="40" fill="#efff04"/><path fill="#000" d="M30.582 29.723c0 5.212 4.245 9.453 9.466 9.453 1.332 0 2.408-.115 3.953-.424v9.836c-8.807 1.433-20.01-3.266-22.578-14.702l-.066-.303-.098.295a19.7 19.7 0 0 0-.973 6.126c0 10.88 8.866 19.73 19.762 19.73 1.421 0 2.793-.086 3.953-.172v9.445c-1.705.326-3.953.326-3.953.326-17.179 0-25.101-13.45-27.067-18.06a28.6 28.6 0 0 1-2.314-11.27c0-15.687 12.475-28.781 28.4-29.309.352-.011 2.81-.146 4.934.304v9.69c-1.278-.349-2.42-.418-3.953-.418-5.221 0-9.466 4.24-9.466 9.453M213.459 34.105c3.248-2.387 8.536-2.926 12.245-1.278a10.1 10.1 0 0 1 3.441 2.395q1.524 1.567 2.351 3.745.872 2.177.872 4.834-.001 2.612-.872 4.789-.827 2.177-2.351 3.789a10.6 10.6 0 0 1-3.441 2.438q-1.96.87-4.18.871a8.4 8.4 0 0 1-2.961-.522 7.8 7.8 0 0 1-2.439-1.393v8.273h-7.184V43.8c-.106-3.923 1.669-7.602 4.519-9.696m-78.847-2.237q2.568 0 4.703.915a11.2 11.2 0 0 1 3.789 2.482 11.1 11.1 0 0 1 2.481 3.789q.915 2.176.915 4.746 0 2.569-.915 4.746a11.6 11.6 0 0 1-2.481 3.832 11.7 11.7 0 0 1-3.789 2.526q-2.135.87-4.703.87-2.526 0-4.703-.87a11.7 11.7 0 0 1-3.789-2.526 12.2 12.2 0 0 1-2.525-3.832q-.87-2.177-.871-4.746 0-2.57.871-4.746a11.7 11.7 0 0 1 2.525-3.79 11.15 11.15 0 0 1 3.789-2.48q2.177-.916 4.703-.916m63.545 0q2.96 0 6.052 1.002v6.793q-2.437-1.176-4.572-1.567-2.133-.392-3.44-.087-1.306.26-1.306 1.175 0 .609.74.958.784.305 1.959.566 1.22.261 2.57.697 1.393.436 2.569 1.219 1.22.74 1.96 2.09.783 1.306.783 3.396 0 2.7-1.523 4.443-1.48 1.698-4.007 2.481-2.526.784-5.661.654-3.092-.088-6.314-1.001v-6.793a23 23 0 0 0 3.657 1.305q1.83.436 3.31.523 1.481.087 2.395-.218.915-.349.914-1.132 0-.61-.784-.958-.74-.348-1.959-.61a93 93 0 0 1-2.613-.697 12 12 0 0 1-2.569-1.175 6.4 6.4 0 0 1-2.003-2.046q-.74-1.307-.74-3.354 0-2.438 1.393-4.136 1.438-1.742 3.832-2.613 2.395-.915 5.357-.915m43.243.96c3.709-1.65 8.998-1.11 12.245 1.276 2.85 2.095 4.626 5.774 4.519 9.697v11.278h-7.184v-1.306a7.8 7.8 0 0 1-2.439 1.393 8.4 8.4 0 0 1-2.962.523q-2.22 0-4.179-.872a10.6 10.6 0 0 1-3.441-2.438q-1.524-1.611-2.351-3.79-.871-2.176-.871-4.788 0-2.657.871-4.834.827-2.178 2.351-3.745a10.1 10.1 0 0 1 3.441-2.395m56.264-9.537c0 4.84-.077 20.373-.077 20.423.106 3.923-1.67 7.6-4.52 9.695-3.248 2.387-8.536 2.927-12.245 1.279a10.1 10.1 0 0 1-3.441-2.396q-1.524-1.568-2.351-3.744-.87-2.178-.87-4.834 0-2.613.87-4.79a11.3 11.3 0 0 1 2.351-3.788 10.6 10.6 0 0 1 3.441-2.439q1.96-.87 4.18-.87 1.567 0 2.961.522c.9.319 1.79.856 2.516 1.466V23.29zM112.891 32.13q3.178-.348 6.793.74v6.706q-2.526-1.22-4.834-1.132-2.307.087-3.788 1.437-1.48 1.305-1.481 3.919 0 2.613 1.481 3.963 1.48 1.306 3.788 1.393 2.308.044 4.834-1.132v6.706q-3.615 1.089-6.793.74-3.18-.304-5.574-1.828a10.8 10.8 0 0 1-3.745-4.007q-1.35-2.527-1.35-5.835 0-3.31 1.35-5.791a10.7 10.7 0 0 1 3.745-4.05q2.395-1.524 5.574-1.83m44.564 22.948h-7.185V32.565h7.185zm17.981-23.122q2.482 0 4.354 1.132 1.917 1.132 2.961 3.265 1.089 2.091 1.089 5.052v13.673h-7.185V42.363q0-1.74-.828-2.787-.783-1.089-2.525-1.089t-2.7 1.002-.958 2.874v12.715h-7.185V32.565h7.185v1.132a9.1 9.1 0 0 1 2.613-1.262 10.3 10.3 0 0 1 3.179-.479m94.928 23.122h-7.185V32.565h7.185zm-49.798-16.765q-2.09 0-3.353 1.525-1.263 1.48-1.262 3.963t1.262 4.006q1.263 1.523 3.353 1.523 2.133 0 3.353-1.48 1.263-1.524 1.263-4.05t-1.263-4.006q-1.22-1.48-3.353-1.48m25.971 0q-2.133 0-3.352 1.48-1.263 1.482-1.263 4.008t1.263 4.049q1.22 1.48 3.352 1.48 2.091 0 3.354-1.523 1.263-1.524 1.263-4.006t-1.263-3.963q-1.263-1.524-3.354-1.525m-111.925.043q-2.134 0-3.44 1.525-1.263 1.48-1.263 3.919 0 2.395 1.263 3.963 1.306 1.523 3.44 1.523t3.396-1.523q1.307-1.568 1.307-3.963 0-2.438-1.307-3.92-1.263-1.523-3.396-1.524m151.348-.172q-2.133 0-3.353 1.48-1.263 1.524-1.263 4.05t1.263 4.007q1.22 1.48 3.353 1.48 2.09 0 3.353-1.524 1.263-1.48 1.263-3.963t-1.263-4.006-3.353-1.524M153.884 21.156a4.2 4.2 0 0 1 2.221.61 4.6 4.6 0 0 1 1.655 1.611q.609.959.609 2.178t-.609 2.22a4.63 4.63 0 0 1-1.655 1.612 4.2 4.2 0 0 1-2.221.61 4.5 4.5 0 0 1-2.308-.61 4.76 4.76 0 0 1-1.611-1.612 4.2 4.2 0 0 1-.609-2.22q0-1.22.609-2.178a4.76 4.76 0 0 1 1.611-1.611 4.5 4.5 0 0 1 2.308-.61m112.909 0q1.22 0 2.221.61a4.6 4.6 0 0 1 1.654 1.611q.61.959.611 2.178 0 1.219-.611 2.22a4.6 4.6 0 0 1-1.654 1.612 4.2 4.2 0 0 1-2.221.61 4.5 4.5 0 0 1-2.308-.61 4.76 4.76 0 0 1-1.611-1.612 4.2 4.2 0 0 1-.61-2.22q0-1.22.61-2.178a4.76 4.76 0 0 1 1.611-1.611 4.5 4.5 0 0 1 2.308-.61"/></svg>
